X: 10798
T: Drag Her Round The Road
R: reel
M: 4/4
K: Eminor
BEED EEGE|EDBE DEGA|BEED EEDE|~G3B A2 G2|
BEED EEDE|GEDB DEGA|BEED ~E3D|~G3B A2 BA||
~G3F GGdB|cBAB cded|~B3A GBde|dBGB ~A3B|
D2 GD GGdB|cBAB cdef|gedB c2 ge|dBGB A2 GA||

